X:1
T:Danse Rustique
T:Danse Rustique
T:W. H. Squire
C:W. H. Squire
%%score ( 1 2 )
L:1/8
M:2/4
K:F
V:1 bass nm="Violoncelle" snm="Vlc"
V:2 bass 
V:1
 z4 | z4 | z4 | z4 |[Q:1/4=96]!mf! C,F, G,A,/B,/ | A,/B,/C C2 | !2!FE/F/ GE | C3 (C | %8
 !1!D)(D F)(F | !4!D)D/C/ B,/C/.D/B,/ | C/D/C/A,/ G,F, | (!2!G,>A,) G,2 | !4!C,F, G,A,/B,/ | %13
 A,/B,/C C2 | !2!FE/F/ GE |"_cresc." !2!C2 !2!A2 |!f! !3!BB B!3!A/G/ | FF F!4!E/D/ | %18
!>(! C/D/C/A,/ G,C,!>)! | F,3!f! (F,/E,/) | (A,D) (=B,/^C/=B,/^C/) | (A,D) (=B,/^C/=B,/^C/) | %22
 (A,D) (E/F/G/E/) | (F!thumb!A) !1!E2 | (uA,!4!D) (=B,/^C/=B,/^C/) | (A,D) =B,/^C/=B,/^C/ | %26
 (A,D) !1!D/E/F/D/ | E2{D-E} D2 | !2!C3 (3((B,/C/D/ | C).=B,) C=B, | CC/=B,/ C/D/!1!E/F/ | %31
 GG/F/ E/F/!1!G/A/ | _B(A/G/) !2!F/E/!4!D/C/ | B,/A,/G,/F,/ E,/D,/C,/=B,,/ |!mf! C,F, G,A,/B,/ | %35
 A,/B,/C C2 | !2!FE/F/ GE | C3 (C | D)(!1!D F)F | D!4!D/C/ B,/C/D/B,/ | C/D/C/A,/ G,F, | %41
 (G,>A,) G,2 | C,F, G,A,/B,/ | A,/B,/C C2 | !2!FE/F/ GE |"_cresc." !2!C2 !2!A2 |!f! BB B!3!A/G/ | %47
 FF F!4!E/D/ |!>(! C/D/C/A,/ G,C,!>)! | F,3 z |[K:Bb]!p! (F,2 D2) |{CD} (C/=B,/C/D/ C)(D/C/ | %52
 _B,/C/D/E/ F!1!D/F/) |!<(! (G/F/E/F/ G!<)!E) | (F/4G/4F3/2 F2- |!>(! F4-!>)! | F3) z | %57
!p! (uF,2 D2) |{CD} (C/=B,/C/D/ C)(D/C/ | _B,/C/!1!D/E/ F/D/F) |"_cresc." (!4!G/F/=E/F/) (G_E) | %61
!f! [D,A,]4- | [D,A,]4- | [D,A,]3 z |!mf! uF(F !thumb!A)(A | !1!D)(D F2) | !2!F/G/(F !thumb!A)(A | %67
 D)(D !2!F>)(F | =E/)F/G/F/ =E!4!D | C4 |{/uC} D(!1!D E)(E | D)(D (A2 | A))uA,/B,/ C/!1!D/E/F/ | %73
 E(D/E/ D)A, | B,/C/(D D/)C/B,/A,/ | G,2 (!thumb!D>!4!C) | B,(3((A,/B,/C/ B,).A,) | %77
 !1!G,2 (!4!G>^F) | (G/^F/G/^F/ G)(!2!G,/^F,/ | G,3) (3(^F,/G,/A,/ |!>(! G,)(G, _G,)(!3!_G,!>)! | %81
!p! F,2 D2) |{CD} (C/=B,/C/D/ C)(D/C/ | B,/C/!1!D/E/ F/D/F) |!<(! (!4!G/F/E/F/ GE)!<)! | %85
 (F/4G/4F3/2 F2- | F4- |!>(! F3) z!>)! |!p! (uF,2 D2) |{CD} C/=B,/C/D/ CD/C/ | B,/C/D/E/ F/D/F | %91
 G/!<(!F/E/F/ GA!<)! |!mf! B4- | B4- |!>(! B4-!>)! | B2 z2 ||[K:F]!mf! vC,F, G,A,/B,/ | %97
 A,/B,/C C2 | !2!FE/F/ GE | !2!C3 ((C | D))(!1!D F)(F | D)!4!D/C/ B,/C/D/B,/ | C/D/C/A,/ G,F, | %103
 (!2!G,>A,) G,2 | C,F, G,A,/B,/ | A,/B,/C C2 | !2!FE/F/ GE |"_cresc." !2!C2 !2!A2 | %108
!f! BB B!3!A/G/ | FF F!4!E/D/ |!>(! C/D/C/A,/ G,C,!>)! | F,3!mf! (uC | !2!F3) (!4!C | F3) (A,/D/) | %114
{CD} (C/B,/C/D/) (.A,.G,) | F,3 (C | F3) (!4!C | F3) (A,/D/) |{CD} (C/B,/C/D/) (.A,.G,) | %119
 F,3!mf! (3(!4!G/F/E/ | F3) (3(!4!D/C/=B,/ | C3) (3(D/C/A,/ | F,)(3(G,/F,/D,/ C,)(3A,,/-C,/A,,/ | %123
 F,,>G,, A,,/B,,/C,/D,/ |"_cresc." E,/F,/G,/A,/ B,/C/D/E/ |!f! F2 z2 | v[C,G,E]2 z2 | %127
 v[F,,C,A,F]2 !fermata!z2 |] %128
V:2
 x4 | x4 | x4 | x4 | x4 | x4 | x4 | x4 | x4 | x4 | x4 | x4 | x4 | x4 | x4 | x4 | x4 | x4 | x4 | %19
 x4 | D,2 D,2 | D,2 D,2 | D,2 z2 | x4 | D,2 D,2 | D,2 D,2 | D,2 x2 | x4 | x4 | x4 | x4 | x4 | x4 | %33
 x4 | x4 | x4 | x4 | x4 | x4 | x4 | x4 | x4 | x4 | x4 | x4 | x4 | x4 | x4 | x4 | x4 |[K:Bb] x4 | %51
 x4 | x4 | x4 | x4 | x4 | x4 | x4 | x4 | x4 | x4 | x4 | x4 | x4 | x4 | x4 | x4 | x4 | x4 | x4 | %70
 x4 | x4 | x4 | x4 | x4 | x4 | x4 | x4 | x4 | x4 | x4 | x4 | x4 | x4 | x4 | x4 | x4 | x4 | x4 | %89
 x4 | x4 | x4 | x4 | x4 | x4 | x4 ||[K:F] x4 | x4 | x4 | x4 | x4 | x4 | x4 | x4 | x4 | x4 | x4 | %107
 x4 | x4 | x4 | x4 | x4 | x4 | x4 | x4 | x4 | x4 | x4 | x4 | x4 | x4 | x4 | x4 | x4 | x4 | x4 | %126
 x4 | x4 |] %128

